dist/assets/images/card/icon-9.svg

<svg width="121" height="87" viewBox="0 0 121 87" fill="none" xmlns="http://www.w3.org/2000/svg">
<path d="M120 1H1V86H120V1Z" stroke="#DF0112" stroke-miterlimit="10"/>
<path d="M66.1992 18.0655L78.9533 21.3228C84.5082 22.9258 89.1695 26.1236 90.5749 31.5889" stroke="#DF0112"/>
<path d="M92.6864 30.7284L91.1932 34.4751L88.1161 31.899L92.6864 30.7284Z" stroke="#DF0112"/>
<path fill-rule="evenodd" clip-rule="evenodd" d="M77.779 35.2051C75.986 33.4111 73.962 32.2611 71.708 31.6631L69.086 41.4591C70.989 41.8981 72.149 43.9511 71.502 45.8401C70.921 47.5331 69.427 48.4901 67.278 48.0001L64.624 57.9731C65.775 58.2501 66.97 58.3871 68.211 58.3871C71.937 58.3871 75.111 57.0531 77.778 54.4321C80.446 51.7641 81.779 48.5431 81.779 44.8191C81.781 41.0921 80.447 37.8731 77.779 35.2051Z" fill="#DF0112"/>
<path d="M35 17L35.024 18.814L67.164 25.87L67.655 24.47L35 17Z" stroke="#0000BD"/>
<path d="M64.5491 57.9101L67.3231 47.9821C69.1461 48.3651 70.8711 47.5801 71.4361 45.7711C72.0001 43.9641 71.0611 42.0271 69.0741 41.3651L71.7081 31.6621" stroke="#0000BD" stroke-width="0.4232"/>
<path d="M68.1499 42.2992C69.4829 42.2992 70.5629 43.3792 70.5629 44.7112C70.5629 46.0432 69.4829 47.1232 68.1499 47.1232C66.8169 47.1232 65.7369 46.0432 65.7369 44.7112C65.7369 43.3792 66.8179 42.2992 68.1499 42.2992ZM68.1509 31.1462C75.6429 31.1462 81.7149 37.2192 81.7149 44.7112C81.7149 52.2032 75.6429 58.2752 68.1509 58.2752C60.6589 58.2752 54.5859 52.2032 54.5859 44.7112C54.5859 37.2202 60.6599 31.1462 68.1509 31.1462ZM68.1509 28.9712C76.8439 28.9712 83.8899 36.0182 83.8899 44.7112C83.8899 53.4042 76.8439 60.4512 68.1509 60.4512C59.4589 60.4512 52.4109 53.4042 52.4109 44.7112C52.4109 36.0182 59.4589 28.9712 68.1509 28.9712Z" stroke="#0000BD" stroke-miterlimit="22.9256"/>
<path d="M63.8081 69.0371L65.2041 62.2871H66.8261L68.2201 69.0371H67.1301L66.8361 67.5081H65.1961L64.8971 69.0371H63.8081ZM65.3841 66.5201H66.6451L66.0121 63.2681L65.3841 66.5201Z" fill="#0000BD"/>
</svg>

<svg width="121" height="87" fill="none" xmlns="http://www.w3.org/2000/svg"><path d="M120 1H1v85h119V1z" stroke="#DF0112" stroke-miterlimit="10"/><path d="M66.2 18.066l12.753 3.257c5.555 1.603 10.216 4.8 11.622 10.266" stroke="#DF0112"/><path d="M92.686 30.728l-1.493 3.747-3.077-2.576 4.57-1.17z" stroke="#DF0112"/><path fill-rule="evenodd" clip-rule="evenodd" d="M77.779 35.205c-1.793-1.794-3.817-2.944-6.071-3.542l-2.622 9.796c1.903.44 3.063 2.492 2.416 4.381-.581 1.693-2.075 2.65-4.224 2.16l-2.654 9.973c1.151.277 2.346.414 3.587.414 3.726 0 6.9-1.334 9.567-3.955 2.668-2.668 4.001-5.889 4.001-9.613.002-3.727-1.332-6.946-4-9.614z" fill="#DF0112"/><path d="M35 17l.024 1.814 32.14 7.056.491-1.4L35 17z" stroke="#0000BD"/><path d="M64.55 57.91l2.773-9.928c1.823.383 3.548-.402 4.113-2.21.564-1.808-.375-3.745-2.362-4.407l2.634-9.703" stroke="#0000BD" stroke-width=".423"/><path d="M68.15 42.3a2.412 2.412 0 11.001 4.824 2.412 2.412 0 01-.001-4.825zm0-11.154c7.493 0 13.565 6.073 13.565 13.565 0 7.492-6.072 13.564-13.564 13.564s-13.565-6.072-13.565-13.564c0-7.49 6.074-13.565 13.565-13.565zm0-2.175c8.694 0 15.74 7.047 15.74 15.74 0 8.693-7.046 15.74-15.74 15.74-8.691 0-15.74-7.047-15.74-15.74 0-8.693 7.049-15.74 15.74-15.74z" stroke="#0000BD" stroke-miterlimit="22.926"/><path d="M63.808 69.037l1.396-6.75h1.622l1.394 6.75h-1.09l-.294-1.529h-1.64l-.299 1.53h-1.089zm1.576-2.517h1.261l-.633-3.252-.628 3.252z" fill="#0000BD"/></svg>
